src/img/channel/channel_10.svg

<svg fill="none" height="38" viewBox="0 0 160 38" width="160" xmlns="http://www.w3.org/2000/svg" xmlns:xlink="http://www.w3.org/1999/xlink"><clipPath id="a"><path d="m0 0h160v37.8607h-160z"/></clipPath><g clip-path="url(#a)" fill="#fff"><path d="m4.25729 4.16551h3.47624c3.17717 0 4.57727 1.00395 4.57727 3.04331 0 1.77225-1.4001 2.97558-4.21045 2.97558h-3.84306zm-4.210415 20.05239h8.519995c4.47753 0 8.95503-1.5995 8.95503-6.7483 0-3.0433-2.1337-5.3796-5.1072-5.7177v-.0703c2.4329-.7289 4.1107-2.5006 4.1107-5.17496 0-4.31225-3.6804-5.948535-7.25635-5.948535h-9.222175zm4.210415-10.4261h4.04247c3.40804 0 5.01764.8702 5.01764 3.3451 0 3.1036-3.0145 3.4736-5.18559 3.4736h-3.87452z"/><path clip-rule="evenodd" d="m24.2824 0v24.218h-3.9987v-24.218z" fill-rule="evenodd"/><path d="m30.9763 16.1989c0-2.5064 1.7723-4.8102 4.7138-4.8102 2.9414 0 4.7084 2.3043 4.7084 4.8102s-1.767 4.8107-4.7084 4.8107c-2.9415 0-4.7138-2.3043-4.7138-4.8107zm-4.011 0c0 5.0464 3.8746 8.4181 8.7248 8.4181 4.8443 0 8.7247-3.3712 8.7247-8.4181 0-5.047-3.8804-8.42351-8.7247-8.42351-4.8502 0-8.7248 3.37711-8.7248 8.42351z"/><path d="m50.2342 16.1988c0-2.5064 1.7722-4.8102 4.7137-4.8102s4.7084 2.3044 4.7084 4.8102c0 2.5059-1.7669 4.8108-4.7084 4.8108s-4.7137-2.3043-4.7137-4.8108zm-4.0111 0c0 5.0465 3.8751 8.4182 8.7248 8.4182 4.8443 0 8.7247-3.3712 8.7247-8.4182 0-5.0469-3.8798-8.42292-8.7247-8.42292-4.8497-.00053-8.7248 3.37652-8.7248 8.42292z"/><path d="m66.1157 8.17656h3.8116v2.50904h.0629c.7028-1.50456 2.2388-2.91265 4.9126-2.91265 2.475 0 4.1843.96716 5.0177 2.97555 1.1692-2.03451 2.8732-2.97555 5.2746-2.97555 4.2781 0 5.7838 3.04595 5.7838 6.88955v9.556h-4.011v-9.0895c0-2.0031-.5977-3.7412-2.973-3.7412-2.5059 0-3.4448 2.0708-3.4448 4.1395v8.6906h-4.0056v-9.5559c0-1.977-.8025-3.2742-2.7421-3.2742-2.6376 0-3.6757 1.9322-3.6757 4.0739v8.7562h-4.011z"/><path d="m107.532 16.1987c0 2.509-1.767 4.8107-4.714 4.8107-2.9417 0-4.7134-2.3017-4.7134-4.8107 0-2.5065 1.7717-4.8161 4.7134-4.8161 2.947 0 4.714 2.3096 4.714 4.8161zm-13.3025 8.0193h3.8116v-2.4046h.063c1.174 1.9322 3.2769 2.8029 5.5199 2.8029 4.94 0 7.918-3.6757 7.918-8.4182 0-4.7452-3.177-8.42294-7.754-8.42294-3.005 0-4.6144 1.4001-5.4483 2.44354h-.0997v-10.2187h-4.011v24.218z"/><path d="m117.368 14.5945c.299-2.3096 1.772-3.8116 4.142-3.8116 2.507 0 4.043 1.471 4.079 3.8116zm12.232 3.0071v-1.101c0-5.5838-3.041-8.72472-7.519-8.72472-4.855 0-8.725 3.37652-8.725 8.42292 0 5.0465 3.87 8.4182 8.725 8.4182 2.533 0 4.913-.9016 6.779-3.2038l-2.873-2.1678c-1.001 1.23-2.307 2.1678-4.31 2.1678-2.238 0-4.048-1.439-4.31-3.8116z"/><path d="m132.211 8.17656h4.011v2.54054h.069c.87-1.83783 2.637-2.94415 4.744-2.94415.504 0 .97.10237 1.437.23832v3.87503c-.666-.1653-1.305-.2991-1.94-.2991-3.775 0-4.31 3.1772-4.31 4.0478v8.5835h-4.011z"/><path d="m151.443 11.3878c2.905 0 4.745 1.9322 4.745 4.7132 0 2.669-1.804 4.7084-4.777 4.7084-2.705 0-4.714-2.1049-4.714-4.6455.001-2.8439 1.935-4.7761 4.746-4.7761zm4.745-3.21124v2.40674h-.063c-1.174-1.94022-3.282-2.81035-5.52-2.81035-4.945 0-7.918 3.67775-7.918 8.42565 0 4.5404 3.177 8.2187 7.986 8.2187 2.008 0 4.079-.7656 5.254-2.3358h.057v1.1719c0 3.1718-1.196 5.3797-5.076 5.3797-2.238 0-3.911-.8392-5.516-2.3177l-2.401 3.2816c2.265 2.0133 4.975 2.643 7.954 2.643 6.25 0 9.054-3.6805 9.054-9.459v-14.60444z"/><path d="m2.27022 31.2487h-2.27022v-1.5568h6.29723v1.5568h-2.27609v6.4124h-1.75092z"/><path d="m7.77051 29.6919h5.41109v1.6251h-3.65484v1.4891h3.45544v1.615h-3.45544v1.6197h3.85904v1.615h-5.61529z"/><path d="m15.4878 29.6919h1.7568v6.3489h3.2454v1.615h-5.0022z"/><path d="m22.1577 29.6919h5.4106v1.6251h-3.6543v1.4891h3.4501v1.615h-3.4501v1.6197h3.8537v1.615h-5.61z"/><path d="m28.7954 29.6919h2.0079l1.9615 5.2218h.0208l2.0031-5.2218h1.8821l-3.2875 7.9639h-1.4049z"/><path clip-rule="evenodd" d="m39.7521 29.6919v7.9639h-1.7594v-7.9639z" fill-rule="evenodd"/><path d="m46.25 31.6424c-.2778-.3566-.844-.5347-1.2689-.5347-.498 0-1.1853.2308-1.1853.8285 0 1.4524 3.665.5135 3.665 3.303 0 1.777-1.4262 2.6216-3.0673 2.6216-1.0221 0-1.9242-.3039-2.6791-.9965l1.2476-1.3788c.3668.4772.949.7496 1.5312.7496.5769 0 1.2162-.2617 1.2162-.8285 0-1.4571-3.7327-.6713-3.7327-3.3291 0-1.6939 1.4731-2.5853 3.0358-2.5853.8968 0 1.7616.241 2.4382.8333z"/><path clip-rule="evenodd" d="m51.361 29.6919v7.9639h-1.7594v-7.9639z" fill-rule="evenodd"/><path d="m57.3444 29.4927c2.4797 0 4.2941 1.6309 4.2941 4.1843 0 2.5533-1.8144 4.1843-4.2941 4.1843-2.4904 0-4.2995-1.631-4.2995-4.1843 0-2.5534 1.8091-4.1843 4.2995-4.1843zm0 6.7477c1.4891 0 2.4696-1.0796 2.4696-2.564 0-1.4843-.9805-2.564-2.4696-2.564-1.4998 0-2.475 1.0797-2.475 2.564 0 1.4844.9757 2.564 2.475 2.564z"/><path d="m63.1221 29.6919h2.3859l3.3867 5.5369h.0213v-5.5369h1.7562v7.9639h-2.3016l-3.471-5.6676h-.0207v5.6676h-1.7568z"/></g></svg>

<svg width="160" height="38" viewBox="0 0 160 38" fill="none" xmlns="http://www.w3.org/2000/svg">
<g clip-path="url(#clip0)">
<path d="M4.25729 4.16551H7.73353C10.9107 4.16551 12.3108 5.16946 12.3108 7.20882C12.3108 8.98107 10.9107 10.1844 8.10035 10.1844H4.25729V4.16551ZM0.046875 24.2179H8.56687C13.0444 24.2179 17.5219 22.6184 17.5219 17.4696C17.5219 14.4263 15.3882 12.09 12.4147 11.7519V11.6816C14.8476 10.9527 16.5254 9.181 16.5254 6.50664C16.5254 2.19439 12.845 0.558105 9.26905 0.558105H0.046875V24.2179ZM4.25729 13.7918H8.29976C11.7078 13.7918 13.3174 14.662 13.3174 17.1369C13.3174 20.2405 10.3029 20.6105 8.13181 20.6105H4.25729V13.7918Z" fill="white"/>
<path fill-rule="evenodd" clip-rule="evenodd" d="M24.2824 0V24.218H20.2837V0H24.2824Z" fill="white"/>
<path d="M30.9763 16.1989C30.9763 13.6925 32.7486 11.3887 35.6901 11.3887C38.6315 11.3887 40.3985 13.693 40.3985 16.1989C40.3985 18.7048 38.6315 21.0096 35.6901 21.0096C32.7486 21.0096 30.9763 18.7053 30.9763 16.1989ZM26.9653 16.1989C26.9653 21.2453 30.8399 24.617 35.6901 24.617C40.5344 24.617 44.4148 21.2458 44.4148 16.1989C44.4148 11.1519 40.5344 7.77539 35.6901 7.77539C30.8399 7.77539 26.9653 11.1525 26.9653 16.1989Z" fill="white"/>
<path d="M50.2342 16.1988C50.2342 13.6924 52.0064 11.3886 54.9479 11.3886C57.8894 11.3886 59.6563 13.693 59.6563 16.1988C59.6563 18.7047 57.8894 21.0096 54.9479 21.0096C52.0064 21.0096 50.2342 18.7053 50.2342 16.1988ZM46.2231 16.1988C46.2231 21.2453 50.0982 24.617 54.9479 24.617C59.7922 24.617 63.6726 21.2458 63.6726 16.1988C63.6726 11.1519 59.7928 7.77588 54.9479 7.77588C50.0982 7.77535 46.2231 11.1524 46.2231 16.1988Z" fill="white"/>
<path d="M66.1157 8.17656H69.9273V10.6856H69.9902C70.693 9.18104 72.229 7.77295 74.9028 7.77295C77.3778 7.77295 79.0871 8.74011 79.9205 10.7485C81.0897 8.71399 82.7937 7.77295 85.1951 7.77295C89.4732 7.77295 90.9789 10.8189 90.9789 14.6625V24.2185H86.9679V15.129C86.9679 13.1259 86.3702 11.3878 83.9949 11.3878C81.489 11.3878 80.5501 13.4586 80.5501 15.5273V24.2179H76.5445V14.662C76.5445 12.685 75.742 11.3878 73.8024 11.3878C71.1648 11.3878 70.1267 13.32 70.1267 15.4617V24.2179H66.1157V8.17656Z" fill="white"/>
<path d="M107.532 16.1987C107.532 18.7077 105.765 21.0094 102.818 21.0094C99.8763 21.0094 98.1046 18.7077 98.1046 16.1987C98.1046 13.6922 99.8763 11.3826 102.818 11.3826C105.765 11.3826 107.532 13.6922 107.532 16.1987ZM94.2295 24.218H98.0411V21.8134H98.1041C99.2781 23.7456 101.381 24.6163 103.624 24.6163C108.564 24.6163 111.542 20.9406 111.542 16.1981C111.542 11.4529 108.365 7.77516 103.788 7.77516C100.783 7.77516 99.1736 9.17526 98.3397 10.2187H98.24V0H94.229V24.218H94.2295Z" fill="white"/>
<path d="M117.368 14.5945C117.667 12.2849 119.14 10.7829 121.51 10.7829C124.017 10.7829 125.553 12.2539 125.589 14.5945H117.368ZM129.6 17.6016V16.5006C129.6 10.9168 126.559 7.77588 122.081 7.77588C117.226 7.77588 113.356 11.1524 113.356 16.1988C113.356 21.2453 117.226 24.617 122.081 24.617C124.614 24.617 126.994 23.7154 128.86 21.4132L125.987 19.2454C124.986 20.4754 123.68 21.4132 121.677 21.4132C119.439 21.4132 117.629 19.9742 117.367 17.6016H129.6Z" fill="white"/>
<path d="M132.211 8.17656H136.222V10.7171H136.291C137.161 8.87927 138.928 7.77295 141.035 7.77295C141.539 7.77295 142.005 7.87532 142.472 8.01127V11.8863C141.806 11.721 141.167 11.5872 140.532 11.5872C136.757 11.5872 136.222 14.7644 136.222 15.635V24.2185H132.211V8.17656H132.211Z" fill="white"/>
<path d="M151.443 11.3878C154.348 11.3878 156.188 13.32 156.188 16.101C156.188 18.77 154.384 20.8094 151.411 20.8094C148.706 20.8094 146.697 18.7045 146.697 16.1639C146.698 13.32 148.632 11.3878 151.443 11.3878ZM156.188 8.17656V10.5833H156.125C154.951 8.64308 152.843 7.77295 150.605 7.77295C145.66 7.77295 142.687 11.4507 142.687 16.1986C142.687 20.739 145.864 24.4173 150.673 24.4173C152.681 24.4173 154.752 23.6517 155.927 22.0815H155.984V23.2534C155.984 26.4252 154.788 28.6331 150.908 28.6331C148.67 28.6331 146.997 27.7939 145.392 26.3154L142.991 29.597C145.256 31.6103 147.966 32.24 150.945 32.24C157.195 32.24 159.999 28.5595 159.999 22.781V8.17656H156.188Z" fill="white"/>
<path d="M2.27022 31.2487H0V29.6919H6.29723V31.2487H4.02114V37.6611H2.27022V31.2487Z" fill="white"/>
<path d="M7.77051 29.6919H13.1816V31.317H9.52676V32.8061H12.9822V34.4211H9.52676V36.0408H13.3858V37.6558H7.77051V29.6919Z" fill="white"/>
<path d="M15.4878 29.6919H17.2446V36.0408H20.49V37.6558H15.4878V29.6919Z" fill="white"/>
<path d="M22.1577 29.6919H27.5683V31.317H23.914V32.8061H27.3641V34.4211H23.914V36.0408H27.7677V37.6558H22.1577V29.6919Z" fill="white"/>
<path d="M28.7954 29.6919H30.8033L32.7648 34.9137H32.7856L34.7887 29.6919H36.6708L33.3833 37.6558H31.9784L28.7954 29.6919Z" fill="white"/>
<path fill-rule="evenodd" clip-rule="evenodd" d="M39.7521 29.6919V37.6558H37.9927V29.6919H39.7521Z" fill="white"/>
<path d="M46.25 31.6424C45.9722 31.2858 45.406 31.1077 44.9811 31.1077C44.4831 31.1077 43.7958 31.3385 43.7958 31.9362C43.7958 33.3886 47.4608 32.4497 47.4608 35.2392C47.4608 37.0162 46.0346 37.8608 44.3935 37.8608C43.3714 37.8608 42.4693 37.5569 41.7144 36.8643L42.962 35.4855C43.3288 35.9627 43.911 36.2351 44.4932 36.2351C45.0701 36.2351 45.7094 35.9734 45.7094 35.4066C45.7094 33.9495 41.9767 34.7353 41.9767 32.0775C41.9767 30.3836 43.4498 29.4922 45.0125 29.4922C45.9093 29.4922 46.7741 29.7332 47.4507 30.3255L46.25 31.6424Z" fill="white"/>
<path fill-rule="evenodd" clip-rule="evenodd" d="M51.361 29.6919V37.6558H49.6016V29.6919H51.361Z" fill="white"/>
<path d="M57.3444 29.4927C59.8241 29.4927 61.6385 31.1236 61.6385 33.677C61.6385 36.2303 59.8241 37.8613 57.3444 37.8613C54.854 37.8613 53.0449 36.2303 53.0449 33.677C53.0449 31.1236 54.854 29.4927 57.3444 29.4927ZM57.3444 36.2404C58.8335 36.2404 59.814 35.1608 59.814 33.6764C59.814 32.1921 58.8335 31.1124 57.3444 31.1124C55.8446 31.1124 54.8694 32.1921 54.8694 33.6764C54.8694 35.1608 55.8451 36.2404 57.3444 36.2404Z" fill="white"/>
<path d="M63.1221 29.6919H65.508L68.8947 35.2288H68.916V29.6919H70.6722V37.6558H68.3706L64.8996 31.9882H64.8789V37.6558H63.1221V29.6919Z" fill="white"/>
</g>
<defs>
<clipPath id="clip0">
<rect width="160" height="37.8607" fill="white"/>
</clipPath>
</defs>
</svg>
